; generated by Slic3r 1.1.7 on 2014-10-10 at 12:11:51

; perimeters extrusion width = 0.40mm
; infill extrusion width = 0.42mm
; solid infill extrusion width = 0.42mm
; top infill extrusion width = 0.42mm

G21 ; set units to millimeters
M107
M190 S50 ; wait for bed temperature to be reached
M104 S200 ; set temperature
G28 ; home all axes
;G92 Z=-.4
G1 Z5 F5000 ; lift nozzle
M109 S200 ; wait for temperature to be reached
G90 ; use absolute coordinates
G92 E0
M82 ; use absolute distances for extrusion
G1 Z0.300 F7800.000
G1 F1800.000 E-1.00000
G92 E0
G1 X80.594 Y111.220 F7800.000
G1 E1.00000 F1800.000
G1 X82.817 Y110.146 E1.06469 F900.000
G1 X85.000 Y109.829 E1.12247
G1 X135.000 Y109.829 E2.43234
G1 X137.437 Y110.226 E2.49703
G1 X139.622 Y111.377 E2.56172 F900.000
G1 X141.327 Y113.163 E2.62640
G1 X142.300 Y115.142 E2.68418
G1 X158.450 Y165.142 E4.06069
G1 X158.821 Y167.500 E4.12322
G1 X158.821 Y172.500 E4.25421
G1 X158.424 Y174.937 E4.31890
G1 X157.273 Y177.122 E4.38358
G1 X155.487 Y178.827 E4.44827
G1 X153.253 Y179.877 E4.51296
G1 X151.150 Y180.171 E4.56858
G1 X68.850 Y180.171 E6.72463
G1 X66.413 Y179.774 E6.78931
G1 X64.228 Y178.623 E6.85400
G1 X62.523 Y176.837 E6.91869
G1 X61.473 Y174.603 E6.98338
G1 X61.179 Y172.500 E7.03900
G1 X61.179 Y167.500 E7.16998
G1 X61.550 Y165.142 E7.23252
G1 X77.700 Y115.142 E8.60902
G1 X78.827 Y112.945 E8.67371
G1 X80.551 Y111.262 E8.73682
G1 X80.991 Y111.642 F7800.000
G1 X81.060 Y111.576 E8.73933 F900.000
G1 X83.232 Y110.609 E8.80161
G1 X85.000 Y110.386 E8.84830
G1 X135.000 Y110.386 E10.15817
G1 X137.344 Y110.783 E10.22045
G1 X139.426 Y111.930 E10.28272 F900.000
G1 X141.014 Y113.699 E10.34500
G1 X141.770 Y115.313 E10.39169
G1 X157.920 Y165.313 E11.76820
G1 X158.264 Y167.500 E11.82619
G1 X158.264 Y172.500 E11.95717
G1 X157.867 Y174.844 E12.01945
G1 X156.720 Y176.926 E12.08173
G1 X154.951 Y178.514 E12.14401
G1 X152.757 Y179.430 E12.20629
G1 X151.150 Y179.614 E12.24866
G1 X68.850 Y179.614 E14.40471
G1 X66.506 Y179.217 E14.46699
G1 X64.424 Y178.070 E14.52927
G1 X62.836 Y176.301 E14.59155
G1 X61.920 Y174.107 E14.65382
G1 X61.736 Y172.500 E14.69620
G1 X61.736 Y167.500 E14.82719
G1 X62.080 Y165.313 E14.88518
G1 X78.230 Y115.313 E16.26168
G1 X79.329 Y113.205 E16.32396
G1 X80.947 Y111.683 E16.38216
G1 X81.378 Y112.071 F7800.000
G1 X81.523 Y111.941 E16.38728 F900.000
G1 X83.638 Y111.086 E16.44705
G1 X85.000 Y110.943 E16.48292
G1 X135.000 Y110.943 E17.79279
G1 X137.247 Y111.340 E17.85256
G1 X139.222 Y112.483 E17.91233 F900.000
G1 X140.685 Y114.233 E17.97211
G1 X141.240 Y115.485 E18.00797
G1 X157.390 Y165.485 E19.38448
G1 X157.707 Y167.500 E19.43792
G1 X157.707 Y172.500 E19.56891
G1 X157.310 Y174.747 E19.62868
G1 X156.167 Y176.722 E19.68846
G1 X154.417 Y178.185 E19.74823
G1 X151.150 Y179.057 E19.83681
G1 X68.850 Y179.057 E21.99286
G1 X66.603 Y178.660 E22.05263
G1 X64.628 Y177.517 E22.11241
G1 X63.165 Y175.767 E22.17218
G1 X62.293 Y172.500 E22.26076
G1 X62.293 Y167.500 E22.39175
G1 X62.610 Y165.485 E22.44520
G1 X78.760 Y115.485 E23.82170
G1 X79.829 Y113.469 E23.88148
G1 X81.333 Y112.112 E23.93456
G1 F1800.000 E22.93456
G92 E0
G1 X82.949 Y113.642 F7800.000
G1 E1.00000 F1800.000
G1 X83.269 Y113.322 E1.01187 F900.000
G1 X136.731 Y113.322 E2.41242
G1 X139.178 Y115.769 E2.50310
G1 X139.178 Y162.996 E3.74030 F900.000
G1 X139.504 Y163.322 E3.75239
G1 X152.881 Y163.322 E4.10281
G1 X155.328 Y165.769 E4.19349
G1 X155.328 Y174.231 E4.41515
G1 X152.881 Y176.678 E4.50583
G1 X67.119 Y176.678 E6.75256
G1 X64.672 Y174.231 E6.84323
G1 X64.672 Y165.769 E7.06489
G1 X67.119 Y163.322 E7.15557
G1 X80.496 Y163.322 E7.50599
G1 X80.822 Y162.996 E7.51808
G1 X80.822 Y115.769 E8.75529
G1 X82.906 Y113.685 E8.83252
G1 X83.343 Y114.036 F7800.000
G1 X83.500 Y113.879 E8.83835 F900.000
G1 X136.500 Y113.879 E10.22680
G1 X138.621 Y116.000 E10.30539 F900.000
G1 X138.621 Y163.553 E11.55114
G1 X138.947 Y163.879 E11.56323
G1 X152.650 Y163.879 E11.92221
G1 X154.771 Y166.000 E12.00079
G1 X154.771 Y174.000 E12.21037
G1 X152.650 Y176.121 E12.28895
G1 X67.350 Y176.121 E14.52359
G1 X65.229 Y174.000 E14.60217
G1 X65.229 Y166.000 E14.81174
G1 X67.350 Y163.879 E14.89033
G1 X81.053 Y163.879 E15.24930
G1 X81.379 Y163.553 E15.26139
G1 X81.379 Y116.000 E16.50715
G1 X83.300 Y114.079 E16.57833
G1 X83.731 Y114.436 F7800.000
G1 X136.269 Y114.436 E17.95470 F900.000
G1 X138.064 Y116.231 E18.02120
G1 X138.064 Y164.110 E19.27550 F900.000
G1 X138.390 Y164.436 E19.28759
G1 X152.419 Y164.436 E19.65511
G1 X154.214 Y166.231 E19.72161
G1 X154.214 Y173.769 E19.91909
G1 X152.419 Y175.564 E19.98558
G1 X67.581 Y175.564 E22.20813
G1 X65.786 Y173.769 E22.27463
G1 X65.786 Y166.231 E22.47211
G1 X67.581 Y164.436 E22.53860
G1 X81.610 Y164.436 E22.90612
G1 X81.936 Y164.110 E22.91821
G1 X81.936 Y116.231 E24.17252
G1 X83.688 Y114.478 E24.23744
G1 X83.962 Y114.993 F7800.000
G1 X136.038 Y114.993 E25.60172 F900.000
G1 X137.507 Y116.462 E25.65612 F900.000
G1 X137.507 Y164.667 E26.91898
G1 X137.833 Y164.993 E26.93107
G1 X152.188 Y164.993 E27.30714
G1 X153.657 Y166.462 E27.36154
G1 X153.657 Y173.538 E27.54693
G1 X152.188 Y175.007 E27.60134
G1 X67.812 Y175.007 E29.81180
G1 X66.343 Y173.538 E29.86620
G1 X66.343 Y166.462 E30.05159
G1 X67.812 Y164.993 E30.10600
G1 X82.167 Y164.993 E30.48207
G1 X82.493 Y164.667 E30.49416
G1 X82.493 Y116.462 E31.75701
G1 X83.919 Y115.036 E31.80984
G1 X84.192 Y115.550 F7800.000
G1 X135.808 Y115.550 E33.16203 F900.000
G1 X136.950 Y116.692 E33.20435
G1 X136.950 Y165.224 E34.47575 F900.000
G1 X137.276 Y165.550 E34.48784
G1 X151.958 Y165.550 E34.87246
G1 X153.100 Y166.692 E34.91477
G1 X153.100 Y173.308 E35.08808
G1 X151.958 Y174.450 E35.13039
G1 X68.042 Y174.450 E37.32876
G1 X66.900 Y173.308 E37.37107
G1 X66.900 Y166.692 E37.54437
G1 X68.042 Y165.550 E37.58669
G1 X82.724 Y165.550 E37.97131
G1 X83.050 Y165.224 E37.98340
G1 X83.050 Y116.692 E39.25480
G1 X84.150 Y115.593 E39.29554
G1 X84.423 Y116.107 F7800.000
G1 X135.577 Y116.107 E40.63564 F900.000
G1 X136.393 Y116.923 E40.66587 F900.000
G1 X136.393 Y165.781 E41.94582
G1 X136.719 Y166.107 E41.95791
G1 X151.727 Y166.107 E42.35107
G1 X152.543 Y166.923 E42.38130
G1 X152.543 Y173.077 E42.54251
G1 X151.727 Y173.893 E42.57274
G1 X68.273 Y173.893 E44.75901
G1 X67.457 Y173.077 E44.78924
G1 X67.457 Y166.923 E44.95045
G1 X68.273 Y166.107 E44.98068
G1 X83.281 Y166.107 E45.37384
G1 X83.607 Y165.781 E45.38593
G1 X83.607 Y116.923 E46.66588
G1 X84.381 Y116.150 E46.69454
G1 X84.654 Y116.664 F7800.000
G1 X135.346 Y116.664 E48.02254 F900.000
G1 X135.836 Y117.154 E48.04068
G1 X135.836 Y166.338 E49.32918 F900.000
G1 X136.162 Y166.664 E49.34127
G1 X151.496 Y166.664 E49.74299
G1 X151.986 Y167.154 E49.76112
G1 X151.986 Y172.846 E49.91024
G1 X151.496 Y173.336 E49.92838
G1 X68.504 Y173.336 E52.10256
G1 X68.014 Y172.846 E52.12070
G1 X68.014 Y167.154 E52.26982
G1 X68.504 Y166.664 E52.28796
G1 X83.838 Y166.664 E52.68967
G1 X84.164 Y166.338 E52.70176
G1 X84.164 Y117.154 E53.99026
G1 X84.611 Y116.707 E54.00683
G1 X84.885 Y117.221 F7800.000
G1 X135.115 Y117.221 E55.32274 F900.000
G1 X135.279 Y117.385 E55.32879
G1 X135.279 Y166.895 E56.62584
G1 X135.605 Y167.221 E56.63793
G1 X151.265 Y167.221 E57.04819
G1 X151.429 Y167.385 E57.05424
G1 X151.429 Y172.615 E57.19127
G1 X151.265 Y172.779 E57.19731
G1 X68.735 Y172.779 E59.35941
G1 X68.571 Y172.615 E59.36545
G1 X68.571 Y167.385 E59.50249
G1 X68.735 Y167.221 E59.50853
G1 X84.395 Y167.221 E59.91880
G1 X84.721 Y166.895 E59.93089
G1 X84.721 Y117.385 E61.22794
G1 X84.842 Y117.264 E61.23241
G1 F1800.000 E60.23241
G92 E0
G1 X134.700 Y167.800 F7800.000
G1 E1.00000 F1800.000
G1 X150.850 Y167.800 E1.42309 F1050.000
G1 X150.850 Y172.200 E1.53836
G1 X69.150 Y172.200 E3.67869
G1 X69.150 Y167.800 E3.79396
G1 X85.300 Y167.800 E4.21705
G1 X85.300 Y117.800 E5.52692
G1 X134.700 Y117.800 E6.82107
G1 X134.700 Y167.740 E8.12937
G1 X134.700 Y168.200 F7800.000
G1 X134.143 Y168.357 F7800.000
G1 X150.293 Y168.357 E8.55246 F1500.000
G1 X150.293 Y171.643 E8.63854
G1 X69.707 Y171.643 E10.74969
G1 X69.707 Y168.357 E10.83577
G1 X85.857 Y168.357 E11.25885
G1 X85.857 Y118.357 E12.56873
G1 X134.143 Y118.357 E13.83369
G1 X134.143 Y168.297 E15.14199
G1 X133.586 Y168.914 F7800.000
G1 X149.736 Y168.914 E15.56508 F1500.000
G1 X149.736 Y171.086 E15.62197
G1 X70.264 Y171.086 E17.70393
G1 X70.264 Y168.914 E17.76082
G1 X86.414 Y168.914 E18.18391
G1 X86.414 Y118.914 E19.49378
G1 X133.586 Y118.914 E20.72956
G1 X133.586 Y168.854 E22.03786
G1 X95.338 Y157.492 F7800.000
G1 X95.148 Y157.951 E22.05087 F1050.000
G1 X94.845 Y158.345 E22.06388
G1 X94.451 Y158.648 E22.07690
G1 X93.992 Y158.838 E22.08991
G1 X93.552 Y158.896 E22.10156
G1 X93.008 Y158.838 E22.11589
G1 X92.549 Y158.648 E22.12890
G1 X92.155 Y158.345 E22.14191
G1 X91.852 Y157.951 E22.15493
G1 X91.662 Y157.492 E22.16794
G1 X91.597 Y157.000 E22.18095
G1 X91.662 Y156.508 E22.19396
G1 X91.852 Y156.049 E22.20697
G1 X92.155 Y155.655 E22.21998
G1 X92.549 Y155.352 E22.23300
G1 X93.008 Y155.162 E22.24601
G1 X93.500 Y155.097 E22.25902
G1 X93.941 Y155.155 E22.27067
G1 X94.451 Y155.352 E22.28500 F1050.000
G1 X94.845 Y155.655 E22.29801
G1 X95.148 Y156.049 E22.31102
G1 X95.338 Y156.508 E22.32403
G1 X95.403 Y157.000 E22.33705
G1 X95.346 Y157.433 E22.34848
G1 F1800.000 E21.34848
G92 E0
G1 X93.950 Y154.756 F7800.000
G1 X95.890 Y157.565 F7800.000
G1 E1.00000 F1800.000
G1 X95.881 Y157.638 E1.00192 F1500.000
G1 X95.634 Y158.232 E1.01878
G1 X95.243 Y158.743 E1.03563
G1 X94.732 Y159.134 E1.05249
G1 X94.138 Y159.381 E1.06935
G1 X93.500 Y159.464 E1.08620
G1 X92.862 Y159.381 E1.10305
G1 X92.268 Y159.134 E1.11990
G1 X91.757 Y158.743 E1.13676
G1 X91.366 Y158.232 E1.15362
G1 X91.119 Y157.638 E1.17047
G1 X91.036 Y157.000 E1.18733
G1 X91.119 Y156.362 E1.20417
G1 X91.366 Y155.768 E1.22103
G1 X91.757 Y155.257 E1.23788
G1 X92.268 Y154.866 E1.25474
G1 X92.862 Y154.619 E1.27160
G1 X93.376 Y154.552 E1.28517
G1 X93.500 Y154.536 E1.28845 F1500.000
G1 X94.138 Y154.619 E1.30530
G1 X94.732 Y154.866 E1.32216
G1 X95.243 Y155.257 E1.33901
G1 X95.634 Y155.768 E1.35587
G1 X95.881 Y156.362 E1.37272
G1 X95.964 Y157.000 E1.38958
G1 X95.898 Y157.505 E1.40293
G1 X96.442 Y157.638 F7800.000
G1 X96.423 Y157.783 E1.40678 F1500.000
G1 X96.121 Y158.513 E1.42748
G1 X95.640 Y159.140 E1.44817
G1 X95.013 Y159.621 E1.46888
G1 X94.283 Y159.923 E1.48958
G1 X93.500 Y160.026 E1.51028
G1 X92.717 Y159.923 E1.53096
G1 X91.987 Y159.621 E1.55166
G1 X91.360 Y159.140 E1.57235
G1 X90.879 Y158.513 E1.59306
G1 X90.577 Y157.783 E1.61376
G1 X90.474 Y157.000 E1.63446
G1 X90.577 Y156.217 E1.65514
G1 X90.879 Y155.487 E1.67584
G1 X91.360 Y154.860 E1.69653
G1 X91.987 Y154.379 E1.71724
G1 X92.717 Y154.077 E1.73794
G1 X93.500 Y153.974 E1.75864
G1 X94.086 Y154.051 E1.77412
G1 X94.283 Y154.077 E1.77932 F1500.000
G1 X95.013 Y154.379 E1.80002
G1 X95.640 Y154.860 E1.82072
G1 X96.121 Y155.487 E1.84143
G1 X96.423 Y156.217 E1.86212
G1 X96.526 Y157.000 E1.88282
G1 X96.450 Y157.578 E1.89809
G1 X102.392 Y150.838 F7800.000
G1 X102.116 Y150.596 E1.90769 F1050.000
G1 X101.301 Y149.712 E1.93921
G1 X100.583 Y148.747 E1.97072
G1 X99.973 Y147.711 E2.00223
G1 X99.497 Y146.662 E2.03240
G1 X99.098 Y145.473 E2.06525
G1 X98.843 Y144.297 E2.09676
G1 X98.716 Y143.101 E2.12827
G1 X98.716 Y141.899 E2.15978
G1 X98.843 Y140.703 E2.19130
G1 X99.098 Y139.527 E2.22281
G1 X99.475 Y138.385 E2.25432
G1 X99.973 Y137.289 E2.28583
G1 X100.583 Y136.253 E2.31734
G1 X101.301 Y135.288 E2.34886
G1 X102.116 Y134.404 E2.38037
G1 X103.022 Y133.612 E2.41188
G1 X104.006 Y132.920 E2.44339
G1 X105.058 Y132.337 E2.47490
G1 X106.166 Y131.870 E2.50642
G1 X107.318 Y131.522 E2.53793
G1 X108.500 Y131.300 E2.56944
G1 X109.699 Y131.204 E2.60095
G1 X110.851 Y131.234 E2.63112
G1 X112.094 Y131.395 E2.66397 F1050.000
G1 X113.262 Y131.681 E2.69548
G1 X114.394 Y132.089 E2.72699
G1 X115.476 Y132.615 E2.75850
G1 X116.495 Y133.253 E2.79002
G1 X117.441 Y133.996 E2.82153
G1 X118.303 Y134.835 E2.85304
G1 X119.071 Y135.761 E2.88455
G1 X119.736 Y136.763 E2.91606
G1 X120.291 Y137.831 E2.94758
G1 X120.729 Y138.951 E2.97909
G1 X121.045 Y140.111 E3.01060
G1 X121.236 Y141.299 E3.04211
G1 X121.298 Y142.449 E3.07229
G1 X121.236 Y143.701 E3.10513
G1 X121.045 Y144.889 E3.13664
G1 X120.729 Y146.049 E3.16815
G1 X120.291 Y147.169 E3.19967
G1 X119.736 Y148.237 E3.23118
G1 X119.071 Y149.239 E3.26269
G1 X118.303 Y150.165 E3.29420
G1 X117.441 Y151.004 E3.32571
G1 X116.536 Y151.716 E3.35589
G1 X115.476 Y152.385 E3.38873
G1 X114.394 Y152.911 E3.42024
G1 X113.262 Y153.319 E3.45175
G1 X112.094 Y153.605 E3.48327
G1 X110.902 Y153.764 E3.51478
G1 X109.699 Y153.796 E3.54629
G1 X108.500 Y153.700 E3.57780
G1 X107.318 Y153.478 E3.60931
G1 X106.166 Y153.130 E3.64083
G1 X105.058 Y152.663 E3.67234
G1 X104.006 Y152.080 E3.70385
G1 X103.022 Y151.388 E3.73536
G1 X102.438 Y150.877 E3.75570
G1 F1800.000 E2.75570
G92 E0
G1 X110.934 Y130.843 F7800.000
G1 X102.026 Y151.257 F7800.000
G1 E1.00000 F1800.000
G1 X101.727 Y150.996 E1.01038 F1500.000
G1 X100.871 Y150.068 E1.04345
G1 X100.118 Y149.055 E1.07652
G1 X99.478 Y147.968 E1.10959
G1 X98.989 Y146.892 E1.14054
G1 X98.559 Y145.620 E1.17571
G1 X98.293 Y144.386 E1.20878
G1 X98.159 Y143.131 E1.24185
G1 X98.159 Y141.869 E1.27491
G1 X98.293 Y140.614 E1.30798
G1 X98.559 Y139.380 E1.34105
G1 X98.956 Y138.182 E1.37412
G1 X99.478 Y137.032 E1.40718
G1 X100.118 Y135.945 E1.44025
G1 X100.871 Y134.932 E1.47332
G1 X101.727 Y134.004 E1.50639
G1 X102.677 Y133.173 E1.53946
G1 X103.710 Y132.447 E1.57252
G1 X104.814 Y131.836 E1.60559
G1 X105.977 Y131.345 E1.63866
G1 X107.186 Y130.981 E1.67173
G1 X108.426 Y130.747 E1.70479
G1 X109.604 Y130.652 E1.73575
G1 X110.946 Y130.680 E1.77092 F1500.000
G1 X112.197 Y130.847 E1.80399
G1 X113.423 Y131.147 E1.83705
G1 X114.611 Y131.575 E1.87012
G1 X115.746 Y132.127 E1.90319
G1 X116.748 Y132.753 E1.93414
G1 X117.809 Y133.576 E1.96931
G1 X118.713 Y134.456 E2.00238
G1 X119.519 Y135.428 E2.03545
G1 X120.217 Y136.480 E2.06852
G1 X120.799 Y137.600 E2.10158
G1 X121.258 Y138.776 E2.13465
G1 X121.590 Y139.993 E2.16772
G1 X121.791 Y141.240 E2.20079
G1 X121.858 Y142.500 E2.23385
G1 X121.791 Y143.760 E2.26692
G1 X121.590 Y145.007 E2.29999
G1 X121.258 Y146.224 E2.33306
G1 X120.799 Y147.400 E2.36613
G1 X120.217 Y148.520 E2.39919
G1 X119.519 Y149.572 E2.43226
G1 X118.713 Y150.544 E2.46533
G1 X117.867 Y151.368 E2.49628
G1 X116.816 Y152.204 E2.53145
G1 X115.746 Y152.873 E2.56452
G1 X114.611 Y153.425 E2.59759
G1 X113.423 Y153.853 E2.63066
G1 X112.197 Y154.153 E2.66372
G1 X110.946 Y154.320 E2.69679
G1 X109.684 Y154.354 E2.72986
G1 X108.426 Y154.253 E2.76293
G1 X107.186 Y154.019 E2.79599
G1 X105.977 Y153.655 E2.82906
G1 X104.814 Y153.164 E2.86213
G1 X103.710 Y152.553 E2.89520
G1 X102.677 Y151.827 E2.92826
G1 X102.071 Y151.296 E2.94938
G1 X101.659 Y151.676 F7800.000
G1 X101.338 Y151.396 E2.96054 F1500.000
G1 X100.442 Y150.425 E2.99516
G1 X99.653 Y149.364 E3.02979
G1 X98.982 Y148.225 E3.06441
G1 X98.482 Y147.122 E3.09614
G1 X98.021 Y145.767 E3.13364
G1 X97.742 Y144.475 E3.16826
G1 X97.601 Y143.161 E3.20288
G1 X97.601 Y141.839 E3.23751
G1 X97.742 Y140.525 E3.27213
G1 X98.021 Y139.233 E3.30676
G1 X98.436 Y137.979 E3.34138
G1 X98.982 Y136.775 E3.37600
G1 X99.653 Y135.636 E3.41063
G1 X100.442 Y134.575 E3.44525
G1 X101.338 Y133.604 E3.47987
G1 X102.333 Y132.734 E3.51450
G1 X103.414 Y131.974 E3.54912
G1 X104.570 Y131.334 E3.58374
G1 X105.686 Y130.863 E3.61547
G1 X107.053 Y130.439 E3.65297
G1 X108.352 Y130.194 E3.68760
G1 X109.670 Y130.088 E3.72222
G1 X110.880 Y130.120 E3.75395
G1 X112.301 Y130.299 E3.79145 F1500.000
G1 X113.584 Y130.612 E3.82608
G1 X114.828 Y131.061 E3.86070
G1 X116.016 Y131.639 E3.89532
G1 X117.137 Y132.340 E3.92995
G1 X118.176 Y133.156 E3.96457
G1 X119.123 Y134.078 E3.99919
G1 X119.967 Y135.095 E4.03381
G1 X120.697 Y136.197 E4.06844
G1 X121.307 Y137.369 E4.10306
G1 X121.788 Y138.600 E4.13769
G1 X122.136 Y139.875 E4.17231
G1 X122.346 Y141.180 E4.20693
G1 X122.410 Y142.390 E4.23866
G1 X122.346 Y143.820 E4.27616
G1 X122.136 Y145.125 E4.31079
G1 X121.788 Y146.400 E4.34541
G1 X121.307 Y147.631 E4.38004
G1 X120.697 Y148.803 E4.41466
G1 X119.967 Y149.905 E4.44928
G1 X119.123 Y150.922 E4.48391
