; generated by Slic3r 1.1.7 on 2014-10-11 at 13:23:17

; perimeters extrusion width = 0.40mm
; infill extrusion width = 0.42mm
; solid infill extrusion width = 0.42mm
; top infill extrusion width = 0.42mm

G21 ; set units to millimeters
M107
M190 S50 ; wait for bed temperature to be reached
M104 S200 ; set temperature
G28 ; home all axes
;G92 Z=-.4
G1 Z5 F5000 ; lift nozzle
M109 S200 ; wait for temperature to be reached
G90 ; use absolute coordinates
G92 E0
M82 ; use absolute distances for extrusion
G1 Z0.300 F7800.000
G1 F1800.000 E-1.00000
G92 E0
G1 X103.163 Y136.923 F7800.000
G1 E1.00000 F1800.000
G1 X105.397 Y135.873 E1.06469 F900.000
G1 X107.500 Y135.579 E1.12031
G1 X112.500 Y135.579 E1.25130
G1 X114.937 Y135.976 E1.31598
G1 X117.122 Y137.127 E1.38067 F900.000
G1 X118.827 Y138.913 E1.44536
G1 X119.877 Y141.147 E1.51004
G1 X120.171 Y143.250 E1.56566
G1 X120.171 Y146.750 E1.65735
G1 X119.774 Y149.187 E1.72204
G1 X118.623 Y151.372 E1.78673
G1 X116.837 Y153.077 E1.85142
G1 X114.603 Y154.127 E1.91610
G1 X112.500 Y154.421 E1.97172
G1 X107.500 Y154.421 E2.10271
G1 X105.063 Y154.024 E2.16740
G1 X102.878 Y152.873 E2.23208
G1 X101.173 Y151.087 E2.29677
G1 X100.123 Y148.853 E2.36146
G1 X99.829 Y146.750 E2.41708
G1 X99.829 Y143.250 E2.50877
G1 X100.226 Y140.813 E2.57346
G1 X101.377 Y138.628 E2.63814
G1 X103.119 Y136.964 E2.70126
G1 X103.558 Y137.363 F7800.000
G1 X103.699 Y137.236 E2.70624 F900.000
G1 X105.893 Y136.320 E2.76852
G1 X107.500 Y136.136 E2.81090
G1 X112.500 Y136.136 E2.94188
G1 X114.844 Y136.533 E3.00416
G1 X116.926 Y137.680 E3.06644 F900.000
G1 X118.514 Y139.449 E3.12872
G1 X119.430 Y141.643 E3.19100
G1 X119.614 Y143.250 E3.23337
G1 X119.614 Y146.750 E3.32506
G1 X119.217 Y149.094 E3.38734
G1 X118.070 Y151.176 E3.44962
G1 X116.301 Y152.764 E3.51190
G1 X114.107 Y153.680 E3.57417
G1 X112.500 Y153.864 E3.61655
G1 X107.500 Y153.864 E3.74754
G1 X105.156 Y153.467 E3.80982
G1 X103.074 Y152.320 E3.87209
G1 X101.486 Y150.551 E3.93437
G1 X100.570 Y148.357 E3.99665
G1 X100.386 Y146.750 E4.03903
G1 X100.386 Y143.250 E4.13072
G1 X100.783 Y140.906 E4.19300
G1 X101.930 Y138.824 E4.25527
G1 X103.513 Y137.403 E4.31100
G1 X103.935 Y137.814 F7800.000
G1 X104.233 Y137.565 E4.32118 F900.000
G1 X107.500 Y136.693 E4.40976
G1 X112.500 Y136.693 E4.54075
G1 X114.747 Y137.090 E4.60052
G1 X116.722 Y138.233 E4.66029 F900.000
G1 X118.185 Y139.983 E4.72006
G1 X119.057 Y143.250 E4.80865
G1 X119.057 Y146.750 E4.90034
G1 X118.660 Y148.997 E4.96011
G1 X117.517 Y150.972 E5.01988
G1 X115.767 Y152.435 E5.07965
G1 X112.500 Y153.307 E5.16824
G1 X107.500 Y153.307 E5.29923
G1 X105.253 Y152.910 E5.35900
G1 X103.278 Y151.767 E5.41877
G1 X101.815 Y150.017 E5.47854
G1 X100.943 Y146.750 E5.56713
G1 X100.943 Y143.250 E5.65882
G1 X101.340 Y141.003 E5.71859
G1 X102.483 Y139.028 E5.77836
G1 X103.889 Y137.853 E5.82638
G1 F1800.000 E4.82638
G92 E0
G1 X105.481 Y139.360 F7800.000
G1 E1.00000 F1800.000
G1 X105.769 Y139.072 E1.01068 F900.000
G1 X114.231 Y139.072 E1.23234
G1 X116.678 Y141.519 E1.32302
G1 X116.678 Y148.481 E1.50539 F900.000
G1 X114.231 Y150.928 E1.59606
G1 X105.769 Y150.928 E1.81773
G1 X103.322 Y148.481 E1.90840
G1 X103.322 Y141.519 E2.09077
G1 X105.439 Y139.403 E2.16919
G1 X105.875 Y139.754 F7800.000
G1 X106.000 Y139.629 E2.17383 F900.000
G1 X114.000 Y139.629 E2.38340
G1 X116.121 Y141.750 E2.46199 F900.000
G1 X116.121 Y148.250 E2.63226
G1 X114.000 Y150.371 E2.71085
G1 X106.000 Y150.371 E2.92042
G1 X103.879 Y148.250 E2.99901
G1 X103.879 Y141.750 E3.16928
G1 X105.833 Y139.797 E3.24166
G1 X106.231 Y140.186 F7800.000
G1 X113.769 Y140.186 E3.43914 F900.000
G1 X115.564 Y141.981 E3.50564
G1 X115.564 Y148.019 E3.66383 F900.000
G1 X113.769 Y149.814 E3.73032
G1 X106.231 Y149.814 E3.92780
G1 X104.436 Y148.019 E3.99430
G1 X104.436 Y141.981 E4.15249
G1 X106.188 Y140.228 E4.21741
G1 X106.462 Y140.743 F7800.000
G1 X113.538 Y140.743 E4.40280 F900.000
G1 X115.007 Y142.212 E4.45721 F900.000
G1 X115.007 Y147.788 E4.60331
G1 X113.538 Y149.257 E4.65771
G1 X106.462 Y149.257 E4.84310
G1 X104.993 Y147.788 E4.89751
G1 X104.993 Y142.212 E5.04361
G1 X106.419 Y140.786 E5.09644
G1 X106.692 Y141.300 F7800.000
G1 X113.308 Y141.300 E5.26974 F900.000
G1 X114.450 Y142.442 E5.31206
G1 X114.450 Y147.558 E5.44606 F900.000
G1 X113.308 Y148.700 E5.48838
G1 X106.692 Y148.700 E5.66168
G1 X105.550 Y147.558 E5.70400
G1 X105.550 Y142.442 E5.83800
G1 X106.650 Y141.343 E5.87875
G1 X106.923 Y141.857 F7800.000
G1 X113.077 Y141.857 E6.03996 F900.000
G1 X113.893 Y142.673 E6.07018 F900.000
G1 X113.893 Y147.327 E6.19210
G1 X113.077 Y148.143 E6.22233
G1 X106.923 Y148.143 E6.38354
G1 X106.107 Y147.327 E6.41376
G1 X106.107 Y142.673 E6.53568
G1 X106.881 Y141.900 E6.56433
G1 X107.154 Y142.414 F7800.000
G1 X112.846 Y142.414 E6.71346 F900.000
G1 X113.336 Y142.904 E6.73159
G1 X113.336 Y147.096 E6.84142 F900.000
G1 X112.846 Y147.586 E6.85955
G1 X107.154 Y147.586 E7.00867
G1 X106.664 Y147.096 E7.02681
G1 X106.664 Y142.904 E7.13664
G1 X107.111 Y142.457 E7.15320
G1 X107.385 Y142.971 F7800.000
G1 X112.615 Y142.971 E7.29023 F900.000
G1 X112.779 Y143.135 E7.29628
G1 X112.779 Y146.865 E7.39401
G1 X112.615 Y147.029 E7.40006
G1 X107.385 Y147.029 E7.53709
G1 X107.221 Y146.865 E7.54314
G1 X107.221 Y143.135 E7.64087
G1 X107.342 Y143.014 E7.64534
G1 F1800.000 E6.64534
G92 E0
G1 X112.200 Y146.450 F7800.000
G1 E1.00000 F1800.000
G1 X107.800 Y146.450 E1.11527 F1050.000
G1 X107.800 Y143.550 E1.19124
G1 X112.200 Y143.550 E1.30651
G1 X112.200 Y146.390 E1.38091
G1 X111.854 Y146.250 F7800.000
G1 X111.643 Y145.893 F7800.000
G1 X108.357 Y145.893 E1.46699 F1500.000
G1 X108.357 Y144.107 E1.51378
G1 X111.643 Y144.107 E1.59986
G1 X111.643 Y145.833 E1.64507
G1 X111.086 Y145.336 F7800.000
G1 X108.914 Y145.336 E1.70196 F1500.000
G1 X108.914 Y144.664 E1.71956
G1 X111.086 Y144.664 E1.77645
G1 X111.086 Y145.276 E1.79248
M106 S255
G1 Z0.600 F7800.000
G1 X112.500 Y146.500 F7800.000
G1 X107.500 Y146.500 E1.88653 F600.000
G1 F1800.000 E0.88653
G92 E0
G1 X109.401 Y144.244 F7800.000
G1 E1.00000 F1800.000
G1 X109.441 Y144.032 E1.00406 F600.000
G1 X109.567 Y143.835 E1.00845
G1 X109.750 Y143.705 E1.01268
G1 X109.984 Y143.651 E1.01719
G1 X110.111 Y143.660 E1.01959
G1 X110.233 Y143.698 E1.02199
G1 X110.433 Y143.835 E1.02655
G1 X110.555 Y144.024 E1.03077
G1 X110.600 Y144.250 E1.03512
G1 X110.555 Y144.476 E1.03946
G1 X110.433 Y144.665 E1.04369
G1 X110.233 Y144.802 E1.04825
G1 X110.111 Y144.840 E1.05064
G1 X109.984 Y144.849 E1.05304
G1 X109.750 Y144.795 E1.05755
G1 X109.567 Y144.665 E1.06178
G1 X109.441 Y144.468 E1.06617
G1 X109.401 Y144.244 E1.07047
G1 Z0.900 F7800.000
G1 F1800.000 E0.07047
G92 E0
G1 X111.336 Y146.500 F7800.000
G1 E1.00000 F1800.000
G1 X108.665 Y146.500 E1.05024 F600.000
G1 F1800.000 E0.05024
G92 E0
G1 X109.401 Y144.244 F7800.000
G1 E1.00000 F1800.000
G1 X109.441 Y144.032 E1.00406 F600.000
G1 X109.567 Y143.835 E1.00845
G1 X109.751 Y143.705 E1.01268
G1 X109.984 Y143.651 E1.01719
G1 X110.111 Y143.660 E1.01959
G1 X110.233 Y143.698 E1.02199
G1 X110.433 Y143.835 E1.02655
G1 X110.555 Y144.024 E1.03078
G1 X110.600 Y144.250 E1.03512
G1 X110.555 Y144.476 E1.03946
G1 X110.433 Y144.665 E1.04369
G1 X110.233 Y144.802 E1.04825
G1 X110.111 Y144.840 E1.05065
G1 X109.984 Y144.849 E1.05304
G1 X109.750 Y144.795 E1.05755
G1 X109.567 Y144.665 E1.06178
G1 X109.441 Y144.468 E1.06617
G1 X109.401 Y144.244 E1.07047
G1 Z1.200 F7800.000
G1 F1800.000 E0.07047
G92 E0
G1 X111.205 Y146.500 F7800.000
G1 E1.00000 F1800.000
G1 X108.796 Y146.500 E1.04532 F600.000
G1 Z1.500 F7800.000
G1 X112.500 Y146.500 F7800.000
G1 X107.500 Y146.500 E1.13938 F600.000
G1 Z1.800 F7800.000
G1 F1800.000 E0.13938
G92 E0
G1 X112.500 Y146.500 F7800.000
G1 E1.00000 F1800.000
G1 X107.500 Y146.500 E1.09405 F600.000
G1 Z2.100 F7800.000
G1 F1800.000 E0.09405
G92 E0
G1 X112.500 Y146.500 F7800.000
G1 E1.00000 F1800.000
G1 X107.500 Y146.500 E1.09405 F600.000
G1 F1800.000 E0.09405
G92 E0
M107
M104 S0 ; turn off temperature
G28 X0  ; home X axis
M140 S0 ; turn off bed heater
M84     ; disable motors
; filament used = 12.9mm (0.1cm3)

; avoid_crossing_perimeters = 0
; bed_size = 220,290
; bed_temperature = 50
; bridge_acceleration = 0
; bridge_fan_speed = 100
; bridge_flow_ratio = 1
; brim_width = 5
; complete_objects = 0
; cooling = 1
; default_acceleration = 0
; disable_fan_first_layers = 1
; duplicate_distance = 6
; end_gcode = M104 S0 ; turn off temperature\nG28 X0  ; home X axis\nM140 S0 ; turn off bed heater\nM84     ; disable motors
; external_perimeters_first = 0
; extruder_clearance_height = 20
; extruder_clearance_radius = 20
; extruder_offset = 0x0
; extrusion_axis = E
; extrusion_multiplier = 1
; fan_always_on = 0
; fan_below_layer_time = 60
; filament_diameter = 2.85
; first_layer_acceleration = 0
; first_layer_bed_temperature = 50
; first_layer_extrusion_width = 200%
; first_layer_speed = 25%
; first_layer_temperature = 200
; g0 = 0
; gcode_arcs = 0
; gcode_comments = 0
; gcode_flavor = reprap
; infill_acceleration = 0
; infill_first = 0
; layer_gcode = 
; max_fan_speed = 100
; min_fan_speed = 35
; min_print_speed = 10
; min_skirt_length = 0
; notes = 
; nozzle_diameter = 0.4
; only_retract_when_crossing_perimeters = 1
; ooze_prevention = 0
; output_filename_format = [input_filename_base].gcode
; perimeter_acceleration = 0
; post_process = 
; print_center = 110,145
; resolution = 0
; retract_before_travel = 2
; retract_layer_change = 0
; retract_length = 1
; retract_length_toolchange = 10
; retract_lift = 0
; retract_restart_extra = 0
; retract_restart_extra_toolchange = 0
; retract_speed = 30
; skirt_distance = 6
; skirt_height = 1
; skirts = 3
; slowdown_below_layer_time = 30
; spiral_vase = 0
; standby_temperature_delta = -5
; start_gcode = G28 ; home all axes\n;G92 Z=-.4\nG1 Z5 F5000 ; lift nozzle
; temperature = 200
; threads = 2
; toolchange_gcode = 
; travel_speed = 130
; use_firmware_retraction = 0
; use_relative_e_distances = 0
; vibration_limit = 0
; wipe = 0
; z_offset = 0
; dont_support_bridges = 1
; extrusion_width = 0
; first_layer_height = 0.3
; infill_only_where_needed = 0
; interface_shells = 0
; layer_height = 0.3
; raft_layers = 0
; seam_position = aligned
; support_material = 0
; support_material_angle = 0
; support_material_enforce_layers = 0
; support_material_extruder = 1
; support_material_extrusion_width = 0
; support_material_interface_extruder = 1
; support_material_interface_layers = 0
; support_material_interface_spacing = 0
; support_material_interface_speed = 100%
; support_material_pattern = rectilinear
; support_material_spacing = 2.5
; support_material_speed = 60
; support_material_threshold = 0
; bottom_solid_layers = 4
; bridge_speed = 60
; external_perimeter_speed = 70%
; extra_perimeters = 1
; fill_angle = 45
; fill_density = 40%
; fill_pattern = honeycomb
; gap_fill_speed = 20
; infill_every_layers = 1
; infill_extruder = 1
; infill_extrusion_width = 0
; infill_speed = 70
; overhangs = 1
; perimeter_extruder = 1
; perimeter_extrusion_width = 0
; perimeter_speed = 100
; perimeters = 3
; small_perimeter_speed = 60
; solid_fill_pattern = rectilinear
; solid_infill_below_area = 70
; solid_infill_every_layers = 0
; solid_infill_extrusion_width = 0
; solid_infill_speed = 70
; thin_walls = 1
; top_infill_extrusion_width = 0
; top_solid_infill_speed = 50
; top_solid_layers = 5
